icons/svg/24x24/camera/filled.svg

<svg width="24" height="24" fill="none" xmlns="http://www.w3.org/2000/svg">
  <path fill-rule="evenodd" clip-rule="evenodd" d="M16 13a4 4 0 10-8 0 4 4 0 008 0zm6-3.656v8.16c0 1.485-1.08 2.75-2.55 2.967A51.56 51.56 0 0112 21a51.56 51.56 0 01-7.45-.529A2.992 2.992 0 012 17.504v-8.16a3.004 3.004 0 012.397-2.941C5.207 6.233 6.127 6.074 7 6l1.703-2.555c.186-.278.498-.445.832-.445h4.93c.334 0 .646.167.832.445L17 6c.873.074 1.793.233 2.603.403A3.004 3.004 0 0122 9.344zM14 13c0 1.103-.897 2-2 2s-2-.897-2-2 .897-2 2-2 2 .897 2 2z" fill="#000"/>
</svg>

<svg xmlns="http://www.w3.org/2000/svg" width="24" height="24" viewBox="0 0 24 24">
  <path fill-rule="evenodd" d="M16,13 C16,10.791 14.209,9 12,9 C9.791,9 8,10.791 8,13 C8,15.209 9.791,17 12,17 C14.209,17 16,15.209 16,13 M22,9.344 L22,17.504 C22,18.989 20.92,20.254 19.45,20.471 C17.693,20.73 15.116,21 12,21 C8.884,21 6.307,20.73 4.55,20.471 C3.08,20.254 2,18.989 2,17.504 L2,9.344 C2,7.917 3.001,6.695 4.397,6.403 C5.207,6.233 6.127,6.074 7,6 L8.703,3.445 C8.889,3.167 9.201,3 9.535,3 L12,3 L14.465,3 C14.799,3 15.111,3.167 15.297,3.445 L17,6 C17.873,6.074 18.793,6.233 19.603,6.403 C20.999,6.695 22,7.917 22,9.344 M14,13 C14,14.103 13.103,15 12,15 C10.897,15 10,14.103 10,13 C10,11.897 10.897,11 12,11 C13.103,11 14,11.897 14,13"/>
</svg>
